svg/24/inbox.svg

<svg width="24" height="24" viewBox="0 0 24 24" fill="currentColor" xmlns="http://www.w3.org/2000/svg"><path fill-rule="evenodd" clip-rule="evenodd" d="M3 5C3 3.89543 3.89543 3 5 3H19C20.1046 3 21 3.89543 21 5V19C21 20.1046 20.1046 21 19 21H5C3.89543 21 3 20.1046 3 19V5ZM5 4.5H19C19.2761 4.5 19.5 4.72386 19.5 5V11H16C14.8954 11 14 11.8954 14 13C14 14.1046 13.1046 15 12 15C10.8954 15 10 14.1046 10 13C10 11.8954 9.10457 11 8 11H4.5V5C4.5 4.72386 4.72386 4.5 5 4.5ZM4.5 12.5V19C4.5 19.2761 4.72386 19.5 5 19.5H19C19.2761 19.5 19.5 19.2761 19.5 19V12.5H16C15.7239 12.5 15.5 12.7239 15.5 13C15.5 14.933 13.933 16.5 12 16.5C10.067 16.5 8.5 14.933 8.5 13C8.5 12.7239 8.27614 12.5 8 12.5H4.5Z"/></svg>

<svg xmlns="http://www.w3.org/2000/svg" width="24" height="24" fill="currentColor" viewBox="0 0 24 24">
  <path fill-rule="evenodd" d="M3 5a2 2 0 0 1 2-2h14a2 2 0 0 1 2 2v14a2 2 0 0 1-2 2H5a2 2 0 0 1-2-2V5Zm2-.5h14a.5.5 0 0 1 .5.5v6H16a2 2 0 0 0-2 2 2 2 0 1 1-4 0 2 2 0 0 0-2-2H4.5V5a.5.5 0 0 1 .5-.5Zm-.5 8V19a.5.5 0 0 0 .5.5h14a.5.5 0 0 0 .5-.5v-6.5H16a.5.5 0 0 0-.5.5 3.5 3.5 0 1 1-7 0 .5.5 0 0 0-.5-.5H4.5Z" clip-rule="evenodd"/>
</svg>
